images/message.svg

<svg width="33" height="28" viewBox="0 0 33 28" fill="none" xmlns="http://www.w3.org/2000/svg">
<path d="M14.9903 13.8844H23.0018L27.3051 18.0046V13.8844H29.1297C30.4116 13.8844 31.4579 12.838 31.4579 11.5562V2.92344C31.4579 1.64161 30.4116 0.595215 29.1297 0.595215H14.9903C13.7085 0.595215 12.6621 1.64161 12.6621 2.92344V11.5562C12.6621 12.838 13.7085 13.8844 14.9903 13.8844Z" fill="#E0EEF7"/>
<path d="M4.53944 27.8928C4.61138 27.9255 4.6964 27.9386 4.77488 27.9386C4.9253 27.9386 5.07572 27.8798 5.18689 27.7751L9.28745 23.8511H16.9981C18.6003 23.8511 19.9018 22.5497 19.9018 20.9474V16.5722C19.9018 16.2452 19.6337 15.977 19.3067 15.977C18.9797 15.977 18.7115 16.2452 18.7115 16.5722V20.9474C18.7115 21.8957 17.9398 22.6609 16.9981 22.6609H9.04547C8.89505 22.6609 8.74463 22.7197 8.63345 22.8244L5.36347 25.9505V23.2625C5.36347 22.9355 5.09534 22.6674 4.76834 22.6674H2.96331C2.01502 22.6674 1.24984 21.8957 1.24984 20.9539V12.3866C1.24984 11.4383 2.02156 10.6666 2.96331 10.6666H9.98068C10.3077 10.6666 10.5758 10.3985 10.5758 10.0715C10.5758 9.74446 10.3077 9.47632 9.98068 9.47632H2.96331C1.36102 9.47632 0.0595703 10.7778 0.0595703 12.3801V20.9474C0.0595703 22.5497 1.36102 23.8511 2.96331 23.8511H4.17974V27.35C4.17974 27.5855 4.32362 27.8013 4.53944 27.8928Z" fill="#318CCA"/>
<path d="M22.7663 14.4795L26.8995 18.4361C27.0107 18.5408 27.1611 18.5996 27.3115 18.5996C27.39 18.5996 27.4685 18.5866 27.547 18.5539C27.7628 18.4623 27.9067 18.2465 27.9067 18.011V14.4795H29.1362C30.745 14.4795 32.0595 13.1715 32.0595 11.5561V2.92336C32.0595 1.31453 30.7516 0 29.1362 0H14.9903C13.3814 0 12.0669 1.30799 12.0669 2.92336V11.5561C12.0669 13.1649 13.3749 14.4795 14.9903 14.4795H22.7663ZM13.2572 11.5561V2.92336C13.2572 1.96853 14.0354 1.19027 14.9903 1.19027H29.1296C30.0845 1.19027 30.8627 1.96853 30.8627 2.92336V11.5561C30.8627 12.5109 30.0845 13.2892 29.1296 13.2892H27.305C26.978 13.2892 26.7099 13.5573 26.7099 13.8843V16.618L23.4072 13.4592C23.296 13.3546 23.1521 13.2957 22.9952 13.2957H14.9903C14.0354 13.2957 13.2572 12.5175 13.2572 11.5561Z" fill="#318CCA"/>
<path d="M22.06 7.9526C22.2169 7.9526 22.3674 7.8872 22.4785 7.77602C22.5897 7.66484 22.6551 7.51442 22.6551 7.35747C22.6551 7.20051 22.5897 7.05009 22.4785 6.93891C22.3674 6.82773 22.2169 6.76233 22.06 6.76233C21.903 6.76233 21.7526 6.82773 21.6414 6.93891C21.5302 7.05009 21.4648 7.20051 21.4648 7.35747C21.4648 7.51442 21.5302 7.66484 21.6414 7.77602C21.7526 7.89374 21.903 7.9526 22.06 7.9526Z" fill="#318CCA"/>
<path d="M24.2704 7.9526C24.4274 7.9526 24.5778 7.8872 24.689 7.77602C24.8002 7.66484 24.8656 7.51442 24.8656 7.35747C24.8656 7.20051 24.8002 7.05009 24.689 6.93891C24.5778 6.82773 24.4274 6.76233 24.2704 6.76233C24.1135 6.76233 23.963 6.82773 23.8519 6.93891C23.7407 7.05009 23.6753 7.20051 23.6753 7.35747C23.6753 7.51442 23.7407 7.66484 23.8519 7.77602C23.9565 7.89374 24.1135 7.9526 24.2704 7.9526Z" fill="#318CCA"/>
<path d="M19.8559 7.9526C20.0128 7.9526 20.1633 7.8872 20.2744 7.77602C20.3856 7.66484 20.451 7.51442 20.451 7.35747C20.451 7.20051 20.3856 7.05009 20.2744 6.93891C20.1633 6.82773 20.0128 6.76233 19.8559 6.76233C19.6989 6.76233 19.5485 6.82773 19.4373 6.93891C19.3261 7.05009 19.2607 7.20051 19.2607 7.35747C19.2607 7.51442 19.3261 7.66484 19.4373 7.77602C19.5485 7.89374 19.6989 7.9526 19.8559 7.9526Z" fill="#318CCA"/>
</svg>

<svg width="33" height="28" fill="none" xmlns="http://www.w3.org/2000/svg"><path d="M14.99 13.884h8.012l4.303 4.12v-4.12h1.825a2.333 2.333 0 002.328-2.328V2.923A2.333 2.333 0 0029.13.595H14.99a2.333 2.333 0 00-2.328 2.328v8.633a2.333 2.333 0 002.328 2.328z" fill="#E0EEF7"/><path d="M4.54 27.893a.607.607 0 00.647-.118l4.1-3.924h7.711a2.906 2.906 0 002.904-2.904v-4.375a.597.597 0 00-.595-.595.597.597 0 00-.595.595v4.375c0 .949-.772 1.714-1.714 1.714H9.045c-.15 0-.3.059-.412.163l-3.27 3.127v-2.689a.597.597 0 00-.595-.595H2.963a1.715 1.715 0 01-1.713-1.713v-8.567c0-.949.772-1.72 1.713-1.72h7.018a.597.597 0 00.595-.595.597.597 0 00-.595-.596H2.963A2.906 2.906 0 00.06 12.38v8.567a2.905 2.905 0 002.903 2.904H4.18v3.499c0 .235.144.451.36.543z" fill="#318CCA"/><path d="M22.766 14.48l4.134 3.956a.607.607 0 00.647.118.594.594 0 00.36-.543V14.48h1.23a2.926 2.926 0 002.922-2.924V2.923A2.926 2.926 0 0029.136 0H14.99a2.926 2.926 0 00-2.923 2.923v8.633a2.927 2.927 0 002.923 2.924h7.776zm-9.509-2.924V2.923c0-.954.778-1.733 1.733-1.733h14.14c.954 0 1.733.779 1.733 1.733v8.633c0 .955-.779 1.733-1.733 1.733h-1.825a.597.597 0 00-.595.595v2.734l-3.303-3.159a.595.595 0 00-.412-.163H14.99a1.737 1.737 0 01-1.733-1.74z" fill="#318CCA"/><path d="M22.06 7.953a.595.595 0 00.419-.177.595.595 0 00.176-.419.595.595 0 00-.177-.418.595.595 0 00-.418-.177.595.595 0 00-.419.177.595.595 0 00-.176.418c0 .157.065.308.176.419a.569.569 0 00.419.177zM24.27 7.953a.595.595 0 00.419-.177.595.595 0 00.177-.419.595.595 0 00-.177-.418.595.595 0 00-.419-.177.595.595 0 00-.418.177.595.595 0 00-.177.418c0 .157.066.308.177.419a.558.558 0 00.418.177zM19.856 7.953a.595.595 0 00.418-.177.595.595 0 00.177-.419.595.595 0 00-.177-.418.595.595 0 00-.418-.177.595.595 0 00-.419.177.595.595 0 00-.176.418c0 .157.065.308.176.419a.569.569 0 00.419.177z" fill="#318CCA"/></svg>
